X:1
T:[ID 4-31va]
T:[ID 4-31va]
T:Bezeichnung standardisiert: Tantz B\"auerisch; Schwabisch In dieser Quelle auch als: B\"auerscher In dieser Quelle auch als: Tantz Bauerisch
T:Urheber unbekannt Erstbeleg: 1767 (Datum in der schriftlichen Quelle) Datum in der hier transkribierten schriftlichen Quelle: 1796
C:Urheber unbekannt
C:Erstbeleg: 1767 (Datum in der schriftlichen Quelle)
C:Datum in der hier transkribierten schriftlichen Quelle: 1796
L:1/8
M:3/8
K:D
V:1 treble 
V:1
 d2 f/d/ | ecA | d2 f/d/ | [ce]3 | df/d/f/d/ | ce/c/e/c/ | dcB | A3 :: Ace | e/f/e/d/c | Adf | %11
 f/g/f/e/d | gec | fdA | GFE | D3 :| %16

